static/assets/img/icons/theme/devices/speaker.svg

<svg height="24" viewBox="0 0 24 24" width="24" xmlns="http://www.w3.org/2000/svg"><g fill="none" fill-rule="evenodd"><path d="m0 0h24v24h-24z" opacity="0"/><g fill="#000"><path d="m7 2h10c1.1045695 0 2 .8954305 2 2v16c0 1.1045695-.8954305 2-2 2h-10c-1.1045695 0-2-.8954305-2-2v-16c0-1.1045695.8954305-2 2-2zm5 17c-2.209139 0-4-1.790861-4-4s1.790861-4 4-4 4 1.790861 4 4-1.790861 4-4 4zm0-12c-.8284271 0-1.5-.67157288-1.5-1.5s.6715729-1.5 1.5-1.5 1.5.67157288 1.5 1.5-.6715729 1.5-1.5 1.5z"/><path d="m12 17c1.1045695 0 2-.8954305 2-2s-.8954305-2-2-2-2 .8954305-2 2 .8954305 2 2 2z" opacity=".3"/></g></g></svg>

<svg width="24px" height="24px" viewBox="0 0 24 24" version="1.1" xmlns="http://www.w3.org/2000/svg" xmlns:xlink="http://www.w3.org/1999/xlink">
    <title>Icon For Speaker</title>
    <g stroke="none" stroke-width="1" fill="none" fill-rule="evenodd">
        <rect opacity="0" x="0" y="0" width="24" height="24"></rect>
        <path d="M7,2 L17,2 C18.1045695,2 19,2.8954305 19,4 L19,20 C19,21.1045695 18.1045695,22 17,22 L7,22 C5.8954305,22 5,21.1045695 5,20 L5,4 C5,2.8954305 5.8954305,2 7,2 Z M12,19 C9.790861,19 8,17.209139 8,15 C8,12.790861 9.790861,11 12,11 C14.209139,11 16,12.790861 16,15 C16,17.209139 14.209139,19 12,19 Z M12,7 C11.1715729,7 10.5,6.32842712 10.5,5.5 C10.5,4.67157288 11.1715729,4 12,4 C12.8284271,4 13.5,4.67157288 13.5,5.5 C13.5,6.32842712 12.8284271,7 12,7 Z" fill="#000000"></path>
        <path d="M12,17 C13.1045695,17 14,16.1045695 14,15 C14,13.8954305 13.1045695,13 12,13 C10.8954305,13 10,13.8954305 10,15 C10,16.1045695 10.8954305,17 12,17 Z" fill="#000000" opacity="0.3"></path>
    </g>
</svg>
